!!!OTL: Weil i's Deandl net wegbring; Hinder dem Bergl steht mei Deandl sei Haus,
!!!ARE: Europa, Mitteleuropa, Deutschland, Bayerischer Wald
!!!SCT: D0080
!!!YEM: Copyright 1995, estate of Helmut Schaffrath.
**kern
*ICvox
*Ivox
*M3/4
*k[f#]
*G:
{8b
8b
=1
4dd
4.gg
8aa
=2
4gg
4dd}
{4b
=3
8cc
8dd
4.ff#
8dd
=4
2cc
8r}
{8cc
=5
8cc
8dd
4.ff#
8ff#
=6
4.ff#
8dd}
{4cc
=7
8b
8dd
4.gg
8dd
=8
2b}
==
!!!AGN: Jodel - Lied
!! Grundton in der kleinen Oktave
!!!ONB: ESAC (Essen Associative Code) Database: DVA
!!!AMT: simple triple
!!!AIN: vox
!!!EED: Helmut Schaffrath
!!!EEV: 1.0
*-
